__todo__/playwright.svg

<svg height="192" preserveAspectRatio="xMidYMid" viewBox="0 0 256 192" width="256" xmlns="http://www.w3.org/2000/svg"><path d="m84.380258 108.351608c-9.5564085 2.712074-15.825994 7.467289-19.9560296 12.218795 3.9557569-3.461844 9.2545726-6.638908 16.4022263-8.664992 7.3108082-2.072063 13.5477627-2.05723 18.7012225-1.062729v-4.029918c-4.3962742-.401954-9.4362674-.081577-15.1474192 1.538844zm-20.3928389-33.8768229-35.4909409 9.3502405s.6468337.9136656 1.8445366 2.1328753l30.0918594-7.9293125s-.4264268 5.4946012-4.1295165 10.4100037c7.0047451-5.2995573 7.6840614-13.963807 7.6840614-13.963807zm29.7082236 83.4098109c-49.9451757 13.452095-76.3695426-44.429216-84.36975316-74.4719065-3.69619278-13.8673974-5.30971738-24.3701025-5.73977802-31.147692-.04620241-.7037895-.02484399-1.2970789.02491816-1.8406802-2.59089468.15648-3.83131443 1.5032469-3.57894397 5.3952252.43006063 6.7738814 2.04358524 17.2758448 5.73977802 31.1476919 7.99665077 30.0382406 34.42457747 87.9195516 84.36997567 74.4674566 10.8712856-2.928624 19.0386556-8.263037 25.1695596-15.072516-5.651081 5.103772-12.723832 9.123307-21.6157563 11.522421zm9.3858383-118.833636v3.554545h19.590415c-.401954-1.2585151-.806874-2.3924394-1.208828-3.554545z" fill="#2d4552"/><path d="m127.050371 68.3253408c8.810347 2.5021979 13.469894 8.6790819 15.932786 14.1455018l9.823389 2.7899433s-1.340092-19.1313574-18.64486-24.0467598c-16.188642-4.5994759-26.150712 8.9950084-27.362506 10.7541114 4.709234-3.3550514 11.5862-6.1019812 20.251191-3.6427967zm78.196281 14.2337536c-16.203475-4.620241-26.161837 9.0024246-27.355831 10.7370544 4.712942-3.3513434 11.586199-6.0990147 20.247483-3.6287061 8.796256 2.5059059 13.452094 8.6753738 15.922403 14.1455013l9.837479 2.800326s-1.361599-19.1350651-18.651534-24.0541756zm-9.75961 50.4429456-81.718195-22.845349s.884743 4.485268 4.2791 10.292829l68.803026 19.234441c5.66443-3.277182 8.636069-6.681921 8.636069-6.681921zm-56.655427 49.174048c-64.7048805-17.347781-56.8823602-99.7905307-46.412286-138.8571526 4.3109889-16.0996486 8.74286-28.0660728 12.418288-36.08756754-2.192946-.45141905-4.009153.70371536-5.8038532 4.35370574-3.9023608 7.9147768-8.892666 20.8017636-13.7220415 38.8422101-10.4671077 39.0658802-18.2896281 121.5056633 46.4122857 138.8534443 30.497299 8.170336 54.255571-4.24721 71.966001-23.748632-16.810855 15.22603-38.273839 23.762723-64.858394 16.643992z" fill="#2d4552"/><path d="m103.081481 138.564869v-16.636575l-46.2236203 13.107245s3.415567-19.845529 27.5223973-26.683931c7.3108083-2.072063 13.5485044-2.057972 18.701223-1.062729v-68.237919h23.144218c-2.519997-7.786923-4.957674-13.7821121-7.005264-17.947745-3.386941-6.8947641-6.859167-2.3242112-14.741758 4.268717-5.5517052 4.6380396-19.5829989 14.5326231-40.6974259 20.2222682-21.1147238 5.6933531-38.1848455 4.1834316-45.3071361 2.9501314-10.09711765-1.742046-15.3784313-3.959465-14.88436958 3.7206659.42998647 6.7738814 2.04358524 17.2765865 5.73977802 31.147692 7.99657666 30.0389825 34.42450326 87.9202935 84.36982736 74.4681985 13.0464332-3.515239 22.2550262-10.4634 28.6380782-19.319727h-19.255948zm-74.5884884-54.7398434 35.4944265-9.3502405s-1.0345483 13.6545549-14.3407682 17.1623783c-13.3099279 3.5041153-21.1536583-7.8121378-21.1536583-7.8121378z" fill="#e2574c"/><path d="m236.66429 39.8400349c-9.226391 1.6174551-31.361276 3.6324142-58.716365-3.6999009-27.362506-7.3278653-45.517161-20.1441023-52.710053-26.16821421-10.196419-8.54040049-14.681687-14.47566735-19.09576-5.49808676-3.902361 7.91841077-8.8926659 20.80539747-13.722783 38.84584397-10.4663661 39.0658803-18.2888865 121.505663 46.412286 138.853444 64.687823 17.332949 99.126046-57.97772 109.593154-97.0473085 4.830117-18.0367384 6.94816-31.6950014 7.531067-40.5016405.664484-9.9761607-6.188008-7.080167-19.291546-4.7841371zm-129.996375 32.3209217s10.196419-15.8586249 27.490063-10.9432225c17.304768 4.9154025 18.64486 24.0467598 18.64486 24.0467598zm42.214763 71.1628354c-30.418687-8.910465-35.110123-33.167101-35.110123-33.167101l81.714487 22.846091c0-.003709-16.494186 19.120233-46.604364 10.32101zm28.890968-49.8496564s10.182329-15.8475007 27.473006-10.9180076c17.289935 4.9228185 18.651534 24.054176 18.651534 24.054176z" fill="#2ead33"/><path d="m86.9284358 126.509229-30.0705751 8.522602s3.266503-18.608521 25.4184449-25.983108l-17.027405-63.9017147-1.4713576.4471919c-21.1145754 5.6940947-38.1846972 4.1834316-45.3069877 2.9501314-10.09704352-1.7413043-15.37835718-3.959465-14.88436961 3.7214075.43006063 6.7738814 2.04358523 17.2758449 5.73977801 31.147692 7.9966508 30.0382409 34.4245775 87.9195519 84.369679 74.4674569l1.4713577-.462024zm-58.4354432-42.6834618 35.4944265-9.3509821s-1.0345483 13.6545549-14.3407682 17.1623783c-13.3098537 3.5041153-21.1536583-7.8113962-21.1536583-7.8113962z" fill="#d65348"/><path d="m150.25466 143.657517-1.37569-.334467c-30.418687-8.909723-35.110123-33.166359-35.110123-33.166359l42.136894 11.778277 22.308422-85.7236392-.269946-.0711948c-27.362506-7.3278653-45.516419-20.1441023-52.710053-26.16821421-10.196419-8.54040049-14.681687-14.47566735-19.09576-5.49808676-3.898653 7.91841077-8.8889579 20.80539747-13.719075 38.84584397-10.4663661 39.0658803-18.2888865 121.505663 46.412286 138.852703l1.326002.298869zm-43.586745-71.4965604s10.196419-15.8586249 27.490063-10.9432225c17.304768 4.9154025 18.64486 24.0467598 18.64486 24.0467598z" fill="#1d8d22"/><path d="m88.4606056 126.07242-8.0642857 2.288614c1.9052005 10.740021 5.2632183 21.04694 10.5338527 30.152449.9173737-.20246 1.8273313-.376739 2.7617621-.632595 2.4488018-.660776 4.7196169-1.478774 6.9058883-2.370933-5.8891387-8.739152-9.784825-18.804306-12.1372174-29.437535zm-3.1488833-75.6443947c-4.1441262 15.4670539-7.8514432 37.7294959-6.8309855 60.0594247 1.8265897-.792783 3.7562633-1.531428 5.8995212-2.13955l1.4928644-.333725c-1.8199152-23.8517161 2.114335-48.1572984 6.5462066-64.694498 1.1235417-4.1834316 2.2500499-8.0746683 3.37285-11.7033744-1.8087909 1.1509814-3.7562633 2.3308856-5.9744239 3.5463872-1.4958308 4.6172745-3.0064939 9.6639422-4.5060328 15.2653355z" fill="#c04b41"/></svg>

<?xml version="1.0" encoding="UTF-8"?>
<svg width="256px" height="192px" viewBox="0 0 256 192" version="1.1" xmlns="http://www.w3.org/2000/svg" xmlns:xlink="http://www.w3.org/1999/xlink" preserveAspectRatio="xMidYMid">
    <title>Playwright</title>
    <g>
        <path d="M84.380258,108.351608 C74.8238495,111.063682 68.554264,115.818897 64.4242284,120.570403 C68.3799853,117.108559 73.678801,113.931495 80.8264547,111.905411 C88.1372629,109.833348 94.3742174,109.848181 99.5276772,110.842682 L99.5276772,106.812764 C95.131403,106.41081 90.0914098,106.731187 84.380258,108.351608 Z M63.9874191,74.4747851 L28.4964782,83.8250256 C28.4964782,83.8250256 29.1433119,84.7386912 30.3410148,85.9579009 L60.4328742,78.0285884 C60.4328742,78.0285884 60.0064474,83.5231896 56.3033577,88.4385921 C63.3081028,83.1390348 63.9874191,74.4747851 63.9874191,74.4747851 Z M93.6956427,157.884596 C43.750467,171.336691 17.3261001,113.45538 9.32588954,83.4126895 C5.62969676,69.5452921 4.01617216,59.042587 3.58611152,52.2649975 C3.53990911,51.561208 3.56126753,50.9679186 3.61102968,50.4243173 C1.020135,50.5807973 -0.220284754,51.9275642 0.0320857117,55.8195425 C0.462146344,62.5934239 2.07567095,73.0953873 5.77186373,86.9672344 C13.7685145,117.005475 40.1964412,174.886786 90.1418394,161.434691 C101.013125,158.506067 109.180495,153.171654 115.311399,146.362175 C109.660318,151.465947 102.587567,155.485482 93.6956427,157.884596 Z M103.081481,39.05096 L103.081481,42.605505 L122.671896,42.605505 C122.269942,41.3469899 121.865022,40.2130656 121.463068,39.05096 L103.081481,39.05096 Z" fill="#2D4552"></path>
        <path d="M127.050371,68.3253408 C135.860718,70.8275387 140.520265,77.0044227 142.983157,82.4708426 L152.806546,85.2607859 C152.806546,85.2607859 151.466454,66.1294285 134.161686,61.2140261 C117.973044,56.6145502 108.010974,70.2090345 106.79918,71.9681375 C111.508414,68.6130861 118.38538,65.8661563 127.050371,68.3253408 Z M205.246652,82.5590944 C189.043177,77.9388534 179.084815,91.561519 177.890821,93.2961488 C182.603763,89.9448054 189.47702,87.1971341 198.138304,89.6674427 C206.93456,92.1733486 211.590398,98.3428165 214.060707,103.812944 L223.898186,106.61327 C223.898186,106.61327 222.536587,87.4782049 205.246652,82.5590944 Z M195.487042,133.00204 L113.768847,110.156691 C113.768847,110.156691 114.65359,114.641959 118.047947,120.44952 L186.850973,139.683961 C192.515403,136.406779 195.487042,133.00204 195.487042,133.00204 Z M138.831615,182.176088 C74.1267345,164.828307 81.9492548,82.3855573 92.419329,43.3189354 C96.7303179,27.2192868 101.162189,15.2528626 104.837617,7.23136786 C102.644671,6.77994881 100.828464,7.93508322 99.0337638,11.5850736 C95.131403,19.4998504 90.1410978,32.3868372 85.3117223,50.4272837 C74.8446146,89.4931639 67.0220942,171.932947 131.724008,189.280728 C162.221307,197.451064 185.979579,185.033518 203.690009,165.532096 C186.879154,180.758126 165.41617,189.294819 138.831615,182.176088 Z" fill="#2D4552"></path>
        <path d="M103.081481,138.564869 L103.081481,121.928294 L56.8578607,135.035539 C56.8578607,135.035539 60.2734277,115.19001 84.380258,108.351608 C91.6910663,106.279545 97.9287624,106.293636 103.081481,107.288879 L103.081481,39.05096 L126.225699,39.05096 C123.705702,31.264037 121.268025,25.2688479 119.220435,21.103215 C115.833494,14.2084509 112.361268,18.7790038 104.478677,25.371932 C98.9269718,30.0099716 84.8956781,39.9045551 63.7812511,45.5942002 C42.6665273,51.2875533 25.5964056,49.7776318 18.474115,48.5443316 C8.37699735,46.8022856 3.0956837,44.5848666 3.58974542,52.2649975 C4.01973189,59.0388789 5.63333066,69.541584 9.32952344,83.4126895 C17.3261001,113.451672 43.7540267,171.332983 93.6993508,157.880888 C106.745784,154.365649 115.954377,147.417488 122.337429,138.561161 L103.081481,138.561161 L103.081481,138.564869 Z M28.4929926,83.8250256 L63.9874191,74.4747851 C63.9874191,74.4747851 62.9528708,88.12934 49.6466509,91.6371634 C36.336723,95.1412787 28.4929926,83.8250256 28.4929926,83.8250256 Z" fill="#E2574C"></path>
        <path d="M236.66429,39.8400349 C227.437899,41.45749 205.303014,43.4724491 177.947925,36.140134 C150.585419,28.8122687 132.430764,15.9960317 125.237872,9.97191979 C115.041453,1.4315193 110.556185,-4.50374756 106.142112,4.47383303 C102.239751,12.3922438 97.2494461,25.2792305 92.419329,43.319677 C81.9529629,82.3855573 74.1304425,164.82534 138.831615,182.173121 C203.519438,199.50607 237.957661,124.195401 248.424769,85.1258125 C253.254886,67.0890741 255.372929,53.4308111 255.955836,44.624172 C256.62032,34.6480113 249.767828,37.544005 236.66429,39.8400349 Z M106.667915,72.1609566 C106.667915,72.1609566 116.864334,56.3023317 134.157978,61.2177341 C151.462746,66.1331366 152.802838,85.2644939 152.802838,85.2644939 L106.667915,72.1609566 Z M148.882678,143.323792 C118.463991,134.413327 113.772555,110.156691 113.772555,110.156691 L195.487042,133.002782 C195.487042,132.999073 178.992856,152.123015 148.882678,143.323792 Z M177.773646,93.4741356 C177.773646,93.4741356 187.955975,77.6266349 205.246652,82.556128 C222.536587,87.4789465 223.898186,106.610304 223.898186,106.610304 L177.773646,93.4741356 Z" fill="#2EAD33"></path>
        <path d="M86.9284358,126.509229 L56.8578607,135.031831 C56.8578607,135.031831 60.1243637,116.42331 82.2763056,109.048723 L65.2489006,45.1470083 L63.777543,45.5942002 C42.6629676,51.2882949 25.5928458,49.7776318 18.4705553,48.5443316 C8.37351178,46.8030273 3.09219812,44.5848666 3.58618569,52.2657391 C4.01624632,59.0396205 5.62977092,69.541584 9.3259637,83.4134311 C17.3226145,113.451672 43.7505412,171.332983 93.6956427,157.880888 L95.1670004,157.418864 L86.9284358,126.509229 Z M28.4929926,83.8257672 L63.9874191,74.4747851 C63.9874191,74.4747851 62.9528708,88.12934 49.6466509,91.6371634 C36.3367972,95.1412787 28.4929926,83.8257672 28.4929926,83.8257672 Z" fill="#D65348"></path>
        <path d="M150.25466,143.657517 L148.87897,143.32305 C118.460283,134.413327 113.768847,110.156691 113.768847,110.156691 L155.905741,121.934968 L178.214163,36.2113288 L177.944217,36.140134 C150.581711,28.8122687 132.427798,15.9960317 125.234164,9.97191979 C115.037745,1.4315193 110.552477,-4.50374756 106.138404,4.47383303 C102.239751,12.3922438 97.2494461,25.2792305 92.419329,43.319677 C81.9529629,82.3855573 74.1304425,164.82534 138.831615,182.17238 L140.157617,182.471249 L150.25466,143.657517 Z M106.667915,72.1609566 C106.667915,72.1609566 116.864334,56.3023317 134.157978,61.2177341 C151.462746,66.1331366 152.802838,85.2644939 152.802838,85.2644939 L106.667915,72.1609566 Z" fill="#1D8D22"></path>
        <path d="M88.4606056,126.07242 L80.3963199,128.361034 C82.3015204,139.101055 85.6595382,149.407974 90.9301726,158.513483 C91.8475463,158.311023 92.7575039,158.136744 93.6919347,157.880888 C96.1407365,157.220112 98.4115516,156.402114 100.597823,155.509955 C94.7086843,146.770803 90.812998,136.705649 88.4606056,126.07242 Z M85.3117223,50.4280253 C81.1675961,65.8950792 77.4602791,88.1575212 78.4807368,110.48745 C80.3073265,109.694667 82.2370001,108.956022 84.380258,108.3479 L85.8731224,108.014175 C84.0532072,84.1624589 87.9874574,59.8568766 92.419329,43.319677 C93.5428707,39.1362454 94.6693789,35.2450087 95.792179,31.6163026 C93.9833881,32.767284 92.0359157,33.9471882 89.8177551,35.1626898 C88.3219243,39.7799643 86.8112612,44.826632 85.3117223,50.4280253 Z" fill="#C04B41"></path>
    </g>
</svg>
